findly-builder/apps/searchassist/src/assets/icons/onboarding/hours.svg

<svg width="40" height="40" viewBox="0 0 40 40" fill="none" xmlns="http://www.w3.org/2000/svg">
<path d="M19.9987 36.665C10.7945 36.665 3.33203 29.2025 3.33203 19.9983C3.33203 10.7942 10.7945 3.33167 19.9987 3.33167C29.2029 3.33167 36.6654 10.7942 36.6654 19.9983C36.6654 29.2025 29.2029 36.665 19.9987 36.665Z" fill="#09914A"/>
<path d="M19.9974 19.9985L8.0957 8.331C14.539 1.7585 25.0924 1.6535 31.6649 8.09684L19.9974 19.9985Z" fill="url(#paint0_linear_629_32442)"/>
<path d="M19.9987 34.165C27.8227 34.165 34.1654 27.8224 34.1654 19.9983C34.1654 12.1743 27.8227 5.83167 19.9987 5.83167C12.1747 5.83167 5.83203 12.1743 5.83203 19.9983C5.83203 27.8224 12.1747 34.165 19.9987 34.165Z" fill="#F2F2F2"/>
<path d="M29.1965 14.404L28.289 7.38818C28.2315 6.94318 28.6107 6.56401 29.0557 6.62151L36.0715 7.52901C36.6348 7.60151 36.8698 8.28985 36.4673 8.69151L30.359 14.7998C29.9573 15.2023 29.2698 14.9673 29.1965 14.404Z" fill="#09914A"/>
<path d="M11.9531 25.8334V24.1809L13.2523 22.7234C15.1423 20.6609 16.3765 19.1718 16.384 17.6209C16.384 16.6826 15.8465 15.9976 14.744 15.9976C13.914 15.9976 13.2148 16.3826 12.7123 16.7159L12.164 14.8018C12.8273 14.3376 13.9748 13.9026 15.2256 13.9026C17.854 13.9026 18.9115 15.5734 18.9115 17.4193C18.9115 19.5426 17.5215 21.2293 16.0581 22.7559L15.219 23.6059V23.6418H19.0931V25.8334H11.9531Z" fill="#E52030"/>
<path d="M24.4917 25.8333V23.0633H20.0801V21.3666L24.0909 14.1666H26.7876V21.0925H28.0217V23.0633H26.7876V25.8333H24.4917ZM24.4917 21.0925V18.6833C24.4917 18.04 24.5476 17.3425 24.5967 16.6783L24.5367 16.6775C24.2351 17.3566 23.9709 17.9375 23.6259 18.6125L22.3059 21.0558L22.3017 21.0916H24.4917V21.0925Z" fill="#E52030"/>
<defs>
<linearGradient id="paint0_linear_629_32442" x1="31.0282" y1="8.541" x2="14.7415" y2="12.7485" gradientUnits="userSpaceOnUse">
<stop stop-color="#F2F2F2"/>
<stop offset="0.148" stop-color="#EEF1EF"/>
<stop offset="0.282" stop-color="#E4ECE8"/>
<stop offset="0.409" stop-color="#D1E4DA"/>
<stop offset="0.533" stop-color="#B7DAC8"/>
<stop offset="0.654" stop-color="#96CCB0"/>
<stop offset="0.773" stop-color="#6DBB92"/>
<stop offset="0.889" stop-color="#3EA770"/>
<stop offset="1" stop-color="#09914A"/>
</linearGradient>
</defs>
</svg>

<svg width="40" height="40" fill="none" xmlns="http://www.w3.org/2000/svg"><path d="M19.999 36.665c-9.204 0-16.667-7.462-16.667-16.667 0-9.204 7.462-16.666 16.667-16.666 9.204 0 16.666 7.462 16.666 16.666S29.203 36.665 20 36.665Z" fill="#09914A"/><path d="M19.997 19.998 8.096 8.332c6.443-6.572 16.996-6.677 23.569-.234L19.997 19.999Z" fill="url(#a)"/><path d="M19.999 34.165c7.824 0 14.166-6.343 14.166-14.167S27.823 5.832 20 5.832c-7.824 0-14.167 6.342-14.167 14.166 0 7.824 6.343 14.167 14.167 14.167Z" fill="#F2F2F2"/><path d="m29.197 14.404-.908-7.016a.685.685 0 0 1 .767-.766l7.015.907c.564.073.799.76.396 1.163L30.36 14.8a.684.684 0 0 1-1.163-.396Z" fill="#09914A"/><path d="M11.953 25.833v-1.652l1.3-1.458c1.89-2.062 3.123-3.551 3.131-5.102 0-.938-.537-1.623-1.64-1.623-.83 0-1.53.385-2.032.718l-.548-1.914c.663-.464 1.81-.9 3.062-.9 2.628 0 3.685 1.671 3.685 3.517 0 2.124-1.39 3.81-2.853 5.337l-.839.85v.036h3.874v2.191h-7.14Zm12.539 0v-2.77H20.08v-1.696l4.01-7.2h2.698v6.926h1.234v1.97h-1.234v2.77h-2.296Zm0-4.74v-2.41c0-.643.056-1.34.105-2.005h-.06a37.18 37.18 0 0 1-.911 1.934l-1.32 2.444-.004.036h2.19Z" fill="#E52030"/><defs><linearGradient id="a" x1="31.028" y1="8.541" x2="14.742" y2="12.748" gradientUnits="userSpaceOnUse"><stop stop-color="#F2F2F2"/><stop offset=".148" stop-color="#EEF1EF"/><stop offset=".282" stop-color="#E4ECE8"/><stop offset=".409" stop-color="#D1E4DA"/><stop offset=".533" stop-color="#B7DAC8"/><stop offset=".654" stop-color="#96CCB0"/><stop offset=".773" stop-color="#6DBB92"/><stop offset=".889" stop-color="#3EA770"/><stop offset="1" stop-color="#09914A"/></linearGradient></defs></svg>
